img/icons/arrow_left.svg

<svg xmlns="http://www.w3.org/2000/svg"
 xmlns:xlink="http://www.w3.org/1999/xlink"
 width="23px" height="11px"  viewBox="0 0 23 11">
<path fill-rule="evenodd"  fill="#181f2c"
 d="M21.000061,6.0 C21.000061,6.0 21.000061,5.0 21.000061,5.0 C21.000061,5.0 2.0,5.0 2.0,5.0 C2.0,5.0 2.0,6.0 2.0,6.0 C2.0,6.0 21.000061,6.0 21.000061,6.0 ZM1.6464844,5.6464844 C1.6464844,5.6464844 2.3535156,6.3535156 2.3535156,6.3535156 C2.3535156,6.3535156 6.3535767,2.3535156 6.3535767,2.3535156 C6.3535767,2.3535156 5.6464233,1.6462402 5.6464233,1.6462402 C5.6464233,1.6462402 1.6464844,5.6464844 1.6464844,5.6464844 ZM6.3535767,8.646484 C6.3535767,8.646484 5.6464233,9.353516 5.6464233,9.353516 C5.6464233,9.353516 1.6464844,5.3535156 1.6464844,5.3535156 C1.6464844,5.3535156 2.3535156,4.6464844 2.3535156,4.6464844 C2.3535156,4.6464844 6.3535767,8.646484 6.3535767,8.646484 Z"/>
</svg>

<svg xmlns="http://www.w3.org/2000/svg" width="23" height="11"><path fill-rule="evenodd" fill="#181f2c" d="M21 6V5H2v1h19zM1.646 5.646l.708.708 4-4-.708-.708-4 4zm4.708 3l-.708.708-4-4 .708-.708 4 4z"/></svg>
